!!!!SEGMENT: pl-sa--l-1643--047_anonim--super-te-jerusalem-orietur.krn
!!!cenid: 16xx:1405
!!!COM: Anonim
!!!COM-rismid: pe30004985
!!!CDT:
!!!CNT:
!!!OTL: Super te Jerusalem orietur
!!!PDT:
!!!AGN: Sacred
!!!SMS-siglum: PL-SA
!!!SMS-shelfmark: L 1643
!!!SMS-shelfwork: 047 W
!!!SMS-variant:
!!!SMS-altvar:
!!!NIFC-rismid: 1001064763
!!!URL-scan: http://repozytorium.nifc.pl/skany/pl-sa-nut--l1643
!!!ONB-nifc: UWAGA: 8 ksiąg. Primi chori: 1mus Cantus (78-79), C 2dus (78-79), C 3tius (76-77), Bassus (73-74); Secondi chori: Primus Cantus (73-74), C 2dus (76-77), Altus (74-75), Bassus (74-75). UWAGA: Nie dodawać pustych linii, chyba że w rękopisie pojawiają się dodatkowe oznaczenia dotyczące pełnej obsady (a 4, a 8 itp.)
**kern	**text	**kern	**text	**kern	**text	**kern	**text	**kern	**text	**kern	**text	**kern	**text	**kern	**text
*part8	*part8	*part7	*part7	*part6	*part6	*part5	*part5	*part4	*part4	*part3	*part3	*part2	*part2	*part1	*part1
*staff8	*staff8	*staff7	*staff7	*staff6	*staff6	*staff5	*staff5	*staff4	*staff4	*staff3	*staff3	*staff2	*staff2	*staff1	*staff1
*Iempty	*	*Iempty	*	*Iempty	*	*Iempty	*	*Iempty	*	*Iempty	*	*Iempty	*	*Iempty	*
*I"Baſsus 2di Chori	*	*I"Altus secundi Chori.	*	*I"Cantus 2dus Secundi Chori.	*	*I"Primus Cantus 2di Chori	*	*I"Bassus Primi Chori.	*	*I"Cantus 3tius Primi Chori	*	*I"Cantus 2dus Primi Chori.	*	*I"1m(us) Cantus Primi Chori	*
*I'II Coro B	*	*I'II Coro A	*	*I'II Coro S 2	*	*I'II Coro S 1	*	*I'I Coro B	*	*I'I Coro S 3	*	*I'I Coro S 2	*	*I'I Coro S 1	*
*clefC3	*	*clefC2	*	*clefC1	*	*clefG2	*	*clefC3	*	*clefC2	*	*clefC1	*	*clefG2	*
*k[]	*	*k[]	*	*k[]	*	*k[]	*	*k[]	*	*k[]	*	*k[]	*	*k[]	*
*C:	*	*C:	*	*C:	*	*C:	*	*C:	*	*C:	*	*C:	*	*C:	*
*M2/2	*	*M2/2	*	*M2/2	*	*M2/2	*	*M2/2	*	*M2/2	*	*M2/2	*	*M2/2	*
*met(C|)	*	*met(C|)	*	*met(C|)	*	*met(C|)	*	*met(C|)	*	*met(C|)	*	*met(C|)	*	*met(C|)	*
=1-	=1-	=1-	=1-	=1-	=1-	=1-	=1-	=1-	=1-	=1-	=1-	=1-	=1-	=1-	=1-
!LO:TX:a:t=In Aduen\ntu Domini\nA 8 V.	!	!LO:TX:a:t=In Aduentu. Domini A 8 V.	!	!LO:TX:a:t=In Aduentu Domini.\nA 8 V.	!	!LO:TX:a:t=In Adventu Domini\nA 8 V.	!	!LO:TX:a:t=In Aduentu D(omi)ni\nA 8 V.	!	!LO:TX:a:t=In Aduentu Domini\nA 8 V.	!	!LO:TX:a:t=In Aduen\ntu Domini\nA 8 V.	!	!LO:TX:a:t=In Aduen\ntu Domini\nA 8 V.	!
1r	.	1r	.	1r	.	1r	.	4c/	Su-	4g\	Su-	4cc\	Su-	4cc\	Su-
.	.	.	.	.	.	.	.	4c/	-per	4g\	-per	4cc\	-per	4cc\	-per
.	.	.	.	.	.	.	.	4g\	te	4g\	te	4b\	te	4dd\	te
.	.	.	.	.	.	.	.	4g\	Je-	4g\	Hiè-	4dd\	Je-	4dd\	Hiè-
=2-	=2-	=2-	=2-	=2-	=2-	=2-	=2-	=2-	=2-	=2-	=2-	=2-	=2-	=2-	=2-
4c/	Su-	4g\	Su-	4cc\	Su-	4cc\	Su-	4.c/	-ru-	4.e/	-ru-	4.cc\	-ru-	4.ee\	-ru-
4c/	-per	4g\	-per	4g/	-per	4cc\	-per	.	.	.	.	.	.	.	.
.	.	.	.	.	.	.	.	8c/	-sa-	8e/	-sa-	8cc\	-sa-	8ee\	-sa-
4g\	te	4g\	te	4b\	te	4dd\	te	2G/	-lem	2g\	-lem	2b\	-lim	2dd\	-lim
4g\	Je-	4g\	Je-	4b\	Je-	4dd\	Je-	.	.	.	.	.	.	.	.
=3-	=3-	=3-	=3-	=3-	=3-	=3-	=3-	=3-	=3-	=3-	=3-	=3-	=3-	=3-	=3-
4.c/	-ru-	4.g\	-ru-	4.cc\	-ru-	4.ee\	-ru-	2r	.	2r	.	2r	.	2r	.
8c/	-sa-	8g\	-sa-	8cc\	-sa-	8ee\	-sa-	.	.	.	.	.	.	.	.
4G/	-lem	4g\	-lem	4b\	-lim	4dd\	-lem	4r	.	4r	.	4r	.	4r	.
4r	.	4r	.	4r	.	4r	.	8g\L	o-	8g\L	o-	8b\L	o-	8dd\L	o-
.	.	.	.	.	.	.	.	8g\J	-ri-	8g\J	-ri-	8b\J	-ri-	8dd\J	-ri-
=4-	=4-	=4-	=4-	=4-	=4-	=4-	=4-	=4-	=4-	=4-	=4-	=4-	=4-	=4-	=4-
2r	.	2r	.	2r	.	2r	.	2c/	-e-	2g\	-e-	2cc\	-e-	2ee\	-e-
4r	.	4r	.	4r	.	4r	.	4g\	-tur	4g\	-tur	4b\	-tur	4dd\	-tur
8c/L	o-	8g\L	o-	8cc\L	o-	8ee\L	o-	4r	.	4r	.	4r	.	4r	.
8c/J	-ri-	8g\J	-ri-	8cc\J	-ri-	8ee\J	-ri-	.	.	.	.	.	.	.	.
=5-	=5-	=5-	=5-	=5-	=5-	=5-	=5-	=5-	=5-	=5-	=5-	=5-	=5-	=5-	=5-
2f\	-e-	2a\	-e-	2cc\	-e-	2ff\	-e-	2r	.	2r	.	2r	.	2r	.
4c/	-tur	4g\	-tur	4cc\	-tur	4ee\	-tur	4r	.	4r	.	4r	.	4r	.
4r	.	4r	.	4r	.	4r	.	8c/L	o-	8g\L	o-	8cc\L	o-	8ee\L	o-
.	.	.	.	.	.	.	.	8c/J	-ri-	8g\J	-ri-	8cc\J	-ri-	8ee\J	-ri-
=6-	=6-	=6-	=6-	=6-	=6-	=6-	=6-	=6-	=6-	=6-	=6-	=6-	=6-	=6-	=6-
2r	.	2r	.	2r	.	2r	.	2f\	-e-	2a\	-e-	2cc\	-e-	2ff\	-e-
4r	.	4r	.	4r	.	4r	.	4c/	-tur	4g\	-tur	4cc\	-tur	4ee\	-tur
!	!	!	!	!	!	!	!	!	!	!	!	!	!	!LO:SIC:v:t=custos gg	!
8c/L	o-	8g\L	o-	8cc\L	o-	8ee\L	o-	4r	.	4r	.	4r	.	4r	.
8c/J	-ri-	8g\J	-ri-	8cc\J	-ri-	8ee\J	-ri-	.	.	.	.	.	.	.	.
!	!	!	!	!	!	!	!	!	!	!	!	!	!	!LO:LB:g=original	!
=7-	=7-	=7-	=7-	=7-	=7-	=7-	=7-	=7-	=7-	=7-	=7-	=7-	=7-	=7-	=7-
!	!	!	!	!	!	!	!	!	!	!	!	!LO:SIC:v:t=custos cc	!	!	!
2G/	-e-	2g\	-e-	2b\	-e-	2dd\	-e-	2r	.	2r	.	2r	.	2r	.
!LO:TX:t=P:problem:oddech jako rozdzielacz słów:global	!	!	!	!LO:TX:t=P:problem:oddech jako rozdzielacz słów:global	!	!	!	!	!	!	!	!LO:PB:g=original	!	!	!
4c,</	-tur	4g\	-tur	4cc,<\	-tur	4ee\	-tur	4r	.	4r	.	4r	.	4r	.
8c/L	o-	8e/L	o-	8cc\L	o-	8ee\L	o-	8c/L	o-	8g\L	o-	8cc\L	o-	8gg\L	o-
!LO:SIC:v:t=custos F	!	!	!	!	!	!	!	!LO:SIC:v:t=custos f	!	!LO:SIC:v:t=custos a	!	!	!	!	!
8c/J	-ri-	8e/J	-ri-	8cc\J	-ri-	8ee\J	-ri-	8c/J	-ri-	8g\J	-ri-	8cc\J	-ri-	8gg\J	-ri-
!LO:LB:g=original	!	!	!	!	!	!	!	!LO:LB:g=original	!	!LO:LB:g=original	!	!	!	!	!
=8-	=8-	=8-	=8-	=8-	=8-	=8-	=8-	=8-	=8-	=8-	=8-	=8-	=8-	=8-	=8-
2F/	-e-	2c/	-e-	2cc\	-e-	2cc\	-e-	2f\	-e-	2a\	-e-	2a\	-e-	2ff\	-e-
!	!	!LO:SIC:v:t=custos g	!	!LO:SIC:v:t=custos b	!	!	!	!	!	!	!	!	!	!	!
2c/	-tur	2e/	-tur	2g/	-tur	2cc\	-tur	2c/	-tur	2g\	-tur	2cc\	-tur	2ee\	-tur
!	!	!LO:LB:g=original	!	!LO:LB:g=original	!	!	!	!	!	!	!	!	!	!	!
=9-	=9-	=9-	=9-	=9-	=9-	=9-	=9-	=9-	=9-	=9-	=9-	=9-	=9-	=9-	=9-
2.G/	Do-	2.g\	Do-	2.b\	Do-	2.dd\	Do-	2.g\	Do-	2.g\	Do-	2.b\	Do-	2.dd\	Do-
!	!	!	!	!	!	!LO:SIC:v:t=custos cc	!	!	!	!	!	!	!	!	!
4G/	-mi-	4g\	-mi-	4b\	-mi-	4dd\	-mi-	4g\	-mi-	4g\	-mi-	4b\	-mi-	4dd\	-mi-
!	!	!	!	!	!	!LO:LB:g=original	!	!	!	!	!	!	!	!	!
=10-	=10-	=10-	=10-	=10-	=10-	=10-	=10-	=10-	=10-	=10-	=10-	=10-	=10-	=10-	=10-
*M3/2	*	*M3/2	*	*M3/2	*	*M3/2	*	*M3/2	*	*M3/2	*	*M3/2	*	*M3/2	*
!	!	!	!	!	!	!	!	!LO:TX:t=P:problem:oddech jako rozdzielacz słów:global	!	!LO:TX:t=P:problem:oddech jako rozdzielacz słów:global	!	!LO:TX:t=P:problem:oddech jako rozdzielacz słów:global	!	!LO:TX:t=P:problem:oddech jako rozdzielacz słów:global	!
1c	-nus	1g	-nus	1g	-nus.	1cc	-nus.	1c,<	-nus	1g,<	-nus	1cc,<	-nus	1ee,<	-nus
2r	.	2r	.	2r	.	2r	.	2c/	Et	2g\	Et	2cc\	Et	2ee\	Et
=11-	=11-	=11-	=11-	=11-	=11-	=11-	=11-	=11-	=11-	=11-	=11-	=11-	=11-	=11-	=11-
00.r	.	00.r	.	00.r	.	00.r	.	2.f\	glo-	2.a\	glo-	2.cc\	glo-	2.ff\	glo-
.	.	.	.	.	.	.	.	4f\	-ri-	4a\	-ri-	4cc\	-ri-	4ff\	-ri-
.	.	.	.	.	.	.	.	2c/	-a	2g\	-a	2cc\	-a	2ee\	-a
=12-	=12-	=12-	=12-	=12-	=12-	=12-	=12-	=12-	=12-	=12-	=12-	=12-	=12-	=12-	=12-
.	.	.	.	.	.	.	.	1G	e-	1g	e-	1dd	e-	1dd	è-
.	.	.	.	.	.	.	.	2c,</	-ius	2g,<\	-ius	2cc,<\	-ius	2ee,<\	-ius
=13-	=13-	=13-	=13-	=13-	=13-	=13-	=13-	=13-	=13-	=13-	=13-	=13-	=13-	=13-	=13-
.	.	.	.	.	.	.	.	2c/	in	2g\	in	2ee\	in	2gg\	in
.	.	.	.	.	.	.	.	2d\	te	2d/	te	2dd\	te	2ff\	te
.	.	.	.	.	.	.	.	4e\	vi-	2g\	vi-	2cc\	vi-	2ee\	vi-
.	.	.	.	.	.	.	.	4f\	.	.	.	.	.	.	.
=14-	=14-	=14-	=14-	=14-	=14-	=14-	=14-	=14-	=14-	=14-	=14-	=14-	=14-	=14-	=14-
.	.	.	.	.	.	.	.	1g	-de-	1g	-de-	1b	-de-	1ff	-de-
.	.	.	.	.	.	.	.	2g\	-bi-	2g\	-bi-	2b\	-bi-	2dd\	-bi-
=15-	=15-	=15-	=15-	=15-	=15-	=15-	=15-	=15-	=15-	=15-	=15-	=15-	=15-	=15-	=15-
2r	.	2r	.	2r	.	2r	.	1c	-tur	1g	-tur	1cc	-tur.	1ee	-tur,
2r	.	2r	.	2r	.	2r	.	.	.	.	.	.	.	.	.
!	!	!	!	!	!	!	!	!	!	!	!	!	!	!LO:SIC:v:t=custos ee	!
2c/	Et	2cc\	Et	2cc\	Et	2ee\	Et	2r	.	2r	.	2r	.	2r	.
!	!	!	!	!	!	!	!	!	!	!	!	!	!	!LO:LB:g=original	!
=16-	=16-	=16-	=16-	=16-	=16-	=16-	=16-	=16-	=16-	=16-	=16-	=16-	=16-	=16-	=16-
!	!	!	!	!	!	!	!	!LO:SIC:v:t=custos c	!	!	!	!LO:SIC:v:t=custos cc	!	!	!
2.g\	glo-	2.b\	glo-	2.dd\	glo-	2.dd\	glo-	00.r	.	00.r	.	00.r	.	00.r	.
4g\	-ri-	4b\	-ri-	4dd\	-ri-	4dd\	-ri-	.	.	.	.	.	.	.	.
2g\	-a	2b\	-a	2b\	-a	2dd\	-a	.	.	.	.	.	.	.	.
=17-	=17-	=17-	=17-	=17-	=17-	=17-	=17-	=17-	=17-	=17-	=17-	=17-	=17-	=17-	=17-
4c/	e-	2.g\	è-	1cc	e-	1ee	e-	.	.	.	.	.	.	.	.
4d\	.	.	.	.	.	.	.	.	.	.	.	.	.	.	.
4e\	.	.	.	.	.	.	.	.	.	.	.	.	.	.	.
4f\	.	4a\	.	.	.	.	.	.	.	.	.	.	.	.	.
!	!	!LO:TX:t=P:problem:oddech jako rozdzielacz słów:global	!	!	!	!LO:TX:t=P:problem:oddech jako rozdzielacz słów:global	!	!	!	!	!	!	!	!	!
2g,<\	-ius	2b,<\	-ius	2dd,<\	-ius	2dd,<\	-ius	.	.	.	.	.	.	.	.
=18-	=18-	=18-	=18-	=18-	=18-	=18-	=18-	=18-	=18-	=18-	=18-	=18-	=18-	=18-	=18-
2c/	in	2g\	in	2cc\	in	2ee\	in	.	.	.	.	.	.	.	.
2f\	te	2a\	te	2cc\	te	2ff\	te	.	.	.	.	.	.	.	.
2c/	vi-	2g\	vi-	2cc\	vi-	2cc\	vi-	.	.	.	.	.	.	.	.
=19-	=19-	=19-	=19-	=19-	=19-	=19-	=19-	=19-	=19-	=19-	=19-	=19-	=19-	=19-	=19-
1G	-de-	1g	-de-	1b	-de-	1dd	-de-	.	.	.	.	.	.	.	.
2G/	-bi-	2g\	-bi-	2b\	-bi-	2dd\	-bi-	.	.	.	.	.	.	.	.
!	!	!	!	!	!	!	!	!LO:PB:g=original	!	!	!	!LO:LB:g=original	!	!	!
=20-	=20-	=20-	=20-	=20-	=20-	=20-	=20-	=20-	=20-	=20-	=20-	=20-	=20-	=20-	=20-
1c,<	-tur	1g,<	-tur	1cc,<	-tur	1ee,<	-tur	2r	.	2r	.	2r	.	2r	.
.	.	.	.	.	.	.	.	2r	.	2r	.	2r	.	2r	.
!LO:SIC:v:t=custos F	!	!	!	!	!	!	!	!	!	!	!	!	!	!	!
2c/	in	2c/	in	2cc\	in	2ee\	in	2c/	in	2g\	in	2cc\	in	2ee\	in
!LO:PB:g=original	!	!	!	!	!	!	!	!	!	!	!	!	!	!	!
=21-	=21-	=21-	=21-	=21-	=21-	=21-	=21-	=21-	=21-	=21-	=21-	=21-	=21-	=21-	=21-
!	!	!	!	!	!	!	!	!	!	!LO:SIC:v:t=custos g	!	!	!	!	!
4F/	te	1c	te	1cc	te	1cc	te	1f	te	1a	te	2.a\	te	1ff	te
4G/	.	.	.	.	.	.	.	.	.	.	.	.	.	.	.
4A/	.	.	.	.	.	.	.	.	.	.	.	.	.	.	.
4B/	.	.	.	.	.	.	.	.	.	.	.	4b\	.	.	.
!	!	!	!	!LO:SIC:v:t=custos dd	!	!	!	!	!	!LO:LB:g=original	!	!	!	!	!
2c/	vi-	2c/	vi-	2cc\	vi-	2ee\	vi-	2c/	vi-	2g\	vi-	2cc\	vi-	2gg\	vi-
!	!	!	!	!LO:LB:g=original	!	!	!	!	!	!	!	!	!	!	!
=22-	=22-	=22-	=22-	=22-	=22-	=22-	=22-	=22-	=22-	=22-	=22-	=22-	=22-	=22-	=22-
!	!	!LO:SIC:v:t=custos d	!	!	!	!	!	!	!	!	!	!	!	!	!
1G	-de-	2g\	.	1dd	-de-	1dd	-de-	1g	-de-	1g	-de-	1b	-de-	1gg	-de-
!	!	!LO:LB:g=original	!	!	!	!	!	!	!	!	!	!	!	!	!
.	.	2d/	-de-	.	.	.	.	.	.	.	.	.	.	.	.
!	!	!	!	!	!	!	!	!	!	!	!	!LO:TX:b:t=re	!	!LO:TX:b:t=P:problem:# below	!
2d\	-bi-	2d/	-bi-	2dd\	-bi-	2dd\	-bi-	2d\	-bi-	2a\	-bi-	2a\	-bi-	2ff#X\	-bi-
=23-	=23-	=23-	=23-	=23-	=23-	=23-	=23-	=23-	=23-	=23-	=23-	=23-	=23-	=23-	=23-
*M2/2	*	*M2/2	*	*M2/2	*	*M2/2	*	*M2/2	*	*M2/2	*	*M2/2	*	*M2/2	*
*met(C|)	*	*met(C|)	*	*met(C|)	*	*met(C|)	*	*met(C|)	*	*met(C|)	*	*met(C|)	*	*met(C|)	*
2G/	-tur	2d/	-tur	2b\	-tur	2dd\	-tur.	2g,<\	-tur	2g\	-tur	2b\	-tur	2gg,<\	-tur
!	!	!	!	!	!	!LO:SIC:v:t=custos ee	!	!	!	!	!	!LO:SIC:v:s=4cc\	!	!	!
2r	.	2r	.	2r	.	2r	.	4c/	Et	4g\	Et	4dd\	Et	4ee\	Et
.	.	.	.	.	.	.	.	4c/	il-	4g\	il-	4g/	il-	4ee\	il-
!	!	!	!	!	!	!LO:LB:g=original	!	!	!	!	!	!	!	!	!
=24-	=24-	=24-	=24-	=24-	=24-	=24-	=24-	=24-	=24-	=24-	=24-	=24-	=24-	=24-	=24-
1r	.	1r	.	1r	.	1r	.	4A/	-lu-	4a\	-lu-	4cc\	-lu-	4cc\	-lu-
.	.	.	.	.	.	.	.	4c/	-mi-	4e/	-mi-	4cc\	-mi-	4cc\	-mi-
.	.	.	.	.	.	.	.	2G/	-na-	2g\	-na-	2b\	-na-	2dd\	-na-
=25-	=25-	=25-	=25-	=25-	=25-	=25-	=25-	=25-	=25-	=25-	=25-	=25-	=25-	=25-	=25-
4c/	Et	4g\	Et	4cc\	Et	4ee\	Et	2c/	-bit	2g\	-bit	2cc\	-bit	2ee\	-bit
4c/	il-	4g\	il-	4cc\	il-	4ee\	il-	.	.	.	.	.	.	.	.
4A/	-lu-	4.e/	-lu-	4cc\	-lu-	4cc\	-lu-	2r	.	2r	.	2r	.	2r	.
4A/	-mi-	.	.	4a\	-mi-	4cc\	-mi-	.	.	.	.	.	.	.	.
.	.	8f\	-mi-	.	.	.	.	.	.	.	.	.	.	.	.
=26-	=26-	=26-	=26-	=26-	=26-	=26-	=26-	=26-	=26-	=26-	=26-	=26-	=26-	=26-	=26-
2G/	-na-	2g\	-na-	2b\	-na-	2dd\	-na-	2r	.	2r	.	2r	.	2r	.
4c/	-bit	4g\	-bit	4cc\	-bit	4ee\	-bit	4r	.	4r	.	4r	.	4r	.
4r	.	4r	.	4r	.	4r	.	4A/	ab-	4a\	ab-	4cc\	ab-	4cc\	ab-
=27-	=27-	=27-	=27-	=27-	=27-	=27-	=27-	=27-	=27-	=27-	=27-	=27-	=27-	=27-	=27-
2r	.	2r	.	2r	.	2r	.	4.c/	-scon-	4.g\	-ſcon-	4.cc\	-scon-	4.ee\	-ſcon-
.	.	.	.	.	.	.	.	8B/	-di-	8g\	-di-	8dd\	-di-	8dd\	-di-
4r	.	4r	.	4r	.	4r	.	4A/	-ta	4a\	-ta	4a\	-ta	4cc\	-ta
!	!	!	!	!LO:TX:b:t=P:problem:# below	!	!LO:SIC:v:s=4cc#\	!	!	!	!	!	!	!	!	!
4A/	ab-	4a\	ab-	4cc#X\	ab-	4cc\	ab-	4r	.	4r	.	4r	.	4r	.
=28-	=28-	=28-	=28-	=28-	=28-	=28-	=28-	=28-	=28-	=28-	=28-	=28-	=28-	=28-	=28-
!	!	!	!	!	!	!	!	!	!	!	!	!	!	!LO:SIC:v:t=custos ee	!
4.d\	-ſcon-	4.a\	-scon-	4.dd\	-ſcon-	4.ff\	-scon-	2r	.	2r	.	2r	.	2r	.
8c/	-di-	8e/	-di-	8a\	-di-	8ee\	-di-	.	.	.	.	.	.	.	.
!	!	!	!	!	!	!	!	!LO:SIC:v:t=custos c	!	!	!	!	!	!LO:PB:g=original	!
4B/	-ta	4g\	-ta	4b\	-ta	4dd\	-ta	4r	.	4r	.	4r	.	4r	.
!	!	!	!	!	!	!	!	!LO:LB:g=original	!	!	!	!	!	!	!
4r	.	4r	.	4r	.	4r	.	4c/	ab-	4g\	ab-	4cc\	ab-	4ee\	ab-
=29-	=29-	=29-	=29-	=29-	=29-	=29-	=29-	=29-	=29-	=29-	=29-	=29-	=29-	=29-	=29-
2r	.	2r	.	2r	.	2r	.	4.f\	-scon-	4.f\	-ſcon-	4.cc\	-scon-	4.aa\	-scon-
.	.	.	.	.	.	.	.	8e\	-di-	4g\	-di-	8cc\	-di-	8gg\	-di-
!	!	!	!	!	!	!	!	!	!	!	!	!LO:SIC:v:t=custos ee	!	!LO:TX:b:t=P:problem:# below	!
4r	.	4r	.	4r	.	4r	.	4d\	-ta	.	.	4dd\	-ta	4ff#X\	-ta
.	.	.	.	.	.	.	.	.	.	8a\	-ta	.	.	.	.
!	!	!	!	!	!	!	!	!	!	!	!	!LO:LB:g=original	!	!	!
4d\	ab-	4a\	ab-	4dd\	ab-	4dd\	ab-	4r	.	4r	.	4r	.	4r	.
=30-	=30-	=30-	=30-	=30-	=30-	=30-	=30-	=30-	=30-	=30-	=30-	=30-	=30-	=30-	=30-
!	!	!	!	!	!	!	!	!	!	!LO:SIC:v:t=custos g	!	!	!	!	!
4.g\	-scon-	4.g\	-scon-	4.b\	-ſcon-	4.dd\	-scon-	2r	.	2r	.	2r	.	2r	.
!LO:SIC:v:t=custos e	!	!	!	!	!	!	!	!	!	!	!	!	!	!	!
8f\	-di-	8g\	-di-	8a\	-di-	8dd\	-di-	.	.	.	.	.	.	.	.
!LO:LB:g=original	!	!	!	!	!	!	!	!	!	!LO:PB:g=original	!	!	!	!	!
4e\	-ta	4g\	-ta	4b\	-ta	4ee\	-ta	4r	.	4r	.	4r	.	4r	.
!	!	!	!	!LO:SIC:v:t=custos cc	!	!	!	!	!	!	!	!	!	!	!
4r	.	4r	.	4r	.	4r	.	4c/	ab-	4g\	ab-	4ee\	ab-	4ee\	ab-
!	!	!	!	!LO:LB:g=original	!	!	!	!	!	!	!	!	!	!	!
=31-	=31-	=31-	=31-	=31-	=31-	=31-	=31-	=31-	=31-	=31-	=31-	=31-	=31-	=31-	=31-
!	!	!LO:SIC:v:t=custos c	!	!	!	!	!	!	!	!	!	!	!	!	!
1r	.	1r	.	1r	.	1r	.	4.e\	-ſcon-	4.e/	-scon-	4.ee\	-scon-	4.gg\	-ſcon-
.	.	.	.	.	.	.	.	8d\	-di-	8g\	-di-	8cc\	-di-	8ffny\	-di-
.	.	.	.	.	.	.	.	2c/	-ta	2g,<\	-ta	2cc\	-ta	2ee\	-ta
!	!	!LO:LB:g=original	!	!	!	!	!	!	!	!	!	!	!	!	!
=32-	=32-	=32-	=32-	=32-	=32-	=32-	=32-	=32-	=32-	=32-	=32-	=32-	=32-	=32-	=32-
2F/	te-	2.c/	te-	2.ccny\	te-	2cc\	te-	2f\	te-	2a\	te-	2cc\	te-	2ff\	te-
2c/	-ne-	.	.	.	.	2cc\	-ne-	2c/	-ne-	2g\	-ne-	2.cc\	-ne-	2ee\	-ne-
.	.	4e/	-ne-	4g/	-ne-	.	.	.	.	.	.	.	.	.	.
=33-	=33-	=33-	=33-	=33-	=33-	=33-	=33-	=33-	=33-	=33-	=33-	=33-	=33-	=33-	=33-
!	!	!	!	!LO:TX:t=P:problem:skreślone nuty 2b 2g	!	!	!	!	!	!	!	!	!	!	!
1G	-bra-	1g	-bra-	1g	-bra-	1dd	-bra-	1g	-bra-	1g	-bra-	.	.	1dd	-bra-
.	.	.	.	.	.	.	.	.	.	.	.	8b\L	.	.	.
.	.	.	.	.	.	.	.	.	.	.	.	8a\J	.	.	.
.	.	.	.	.	.	.	.	.	.	.	.	2b\	-bra-	.	.
=34-	=34-	=34-	=34-	=34-	=34-	=34-	=34-	=34-	=34-	=34-	=34-	=34-	=34-	=34-	=34-
!	!	!	!	!	!	!LO:SIC:v:t=custos ff	!	!	!	!	!	!	!	!	!
1c	-rum	1g	-rum	1g	-rum	1cc	-rum	1c,<	-rum	1g	-rum	1cc,<	-rum	1ee,<	-rum
!	!	!	!	!	!	!LO:LB:g=original	!	!	!	!	!	!	!	!	!
=35-	=35-	=35-	=35-	=35-	=35-	=35-	=35-	=35-	=35-	=35-	=35-	=35-	=35-	=35-	=35-
0r	.	0r	.	0r	.	0r	.	0r	.	0r	.	0r	.	4.dd\	Hie-
.	.	.	.	.	.	.	.	.	.	.	.	.	.	8dd\	-ru-
.	.	.	.	.	.	.	.	.	.	.	.	.	.	4dd\	-sa-
.	.	.	.	.	.	.	.	.	.	.	.	.	.	4dd\	-lim
=36-	=36-	=36-	=36-	=36-	=36-	=36-	=36-	=36-	=36-	=36-	=36-	=36-	=36-	=36-	=36-
.	.	.	.	.	.	.	.	.	.	.	.	.	.	2ee\	gau-
.	.	.	.	.	.	.	.	.	.	.	.	.	.	2dd\	-de.
=37-	=37-	=37-	=37-	=37-	=37-	=37-	=37-	=37-	=37-	=37-	=37-	=37-	=37-	=37-	=37-
*M3/2	*	*M3/2	*	*M3/2	*	*M3/2	*	*M3/2	*	*M3/2	*	*M3/2	*	*M3/2	*
!	!	!	!	!	!	!	!	!	!	!	!	!	!	!LO:SIC:v:t=custos ee	!
2.F/	Gau-	2.c/	Gau-	2.cc\	Gau-	2.ff\	Gau-	2.f\	Gau-	2.a\	Gau-	2.cc\	Gau-	0.r	.
4F/	-di-	4c/	-di-	4cc\	-di-	4ff\	-di-	4f\	-di-	4a\	-di-	4cc\	-di-	.	.
2c/	-o	2e/	-o	2cc\	-o	2ee\	-o	2c/	-o	2g\	-o	2cc\	-o	.	.
=38-	=38-	=38-	=38-	=38-	=38-	=38-	=38-	=38-	=38-	=38-	=38-	=38-	=38-	=38-	=38-
1G	ma-	1g	ma-	1dd	ma-	1dd	ma-	1g	ma-	1g	ma-	1b	ma-	.	.
2c/	-gno	2e/	-gno	2cc\	-gno	2ee\	-gno	2c/	-gno	2g\	-gno	2cc\	-gno	.	.
!	!	!	!	!	!	!	!	!	!	!	!	!	!	!LO:LB:g=original	!
=39-	=39-	=39-	=39-	=39-	=39-	=39-	=39-	=39-	=39-	=39-	=39-	=39-	=39-	=39-	=39-
*M2/2	*	*M2/2	*	*M2/2	*	*M2/2	*	*M2/2	*	*M2/2	*	*M2/2	*	*M2/2	*
*met(C|)	*	*met(C|)	*	*met(C|)	*	*met(C|)	*	*met(C|)	*	*met(C|)	*	*met(C|)	*	*met(C|)	*
0r	.	0r	.	0r	.	0r	.	0r	.	0r	.	0r	.	4.ee\	Je-
.	.	.	.	.	.	.	.	.	.	.	.	.	.	8ee\	-ru-
.	.	.	.	.	.	.	.	.	.	.	.	.	.	4ee\	-sa-
.	.	.	.	.	.	.	.	.	.	.	.	.	.	4ee\	-lem
=40-	=40-	=40-	=40-	=40-	=40-	=40-	=40-	=40-	=40-	=40-	=40-	=40-	=40-	=40-	=40-
.	.	.	.	.	.	.	.	.	.	.	.	.	.	2ff\	gau-
.	.	.	.	.	.	.	.	.	.	.	.	.	.	2ee\	-de.
!	!	!	!	!	!	!	!	!LO:LB:g=original	!	!	!	!	!	!	!
=41-	=41-	=41-	=41-	=41-	=41-	=41-	=41-	=41-	=41-	=41-	=41-	=41-	=41-	=41-	=41-
*M3/2	*	*M3/2	*	*M3/2	*	*M3/2	*	*M3/2	*	*M3/2	*	*M3/2	*	*M3/2	*
2.c/	gau-	2.c/	gau-	2.cc\	gau-	2.ee\	gau-	2.c/	gau-	2.g\	gau-	2.ee\	gau-	0.r	.
4c/	-di-	4c/	-di-	4cc\	-di-	4ee\	-di-	4c/	-di-	4g\	-di-	4ee\	-di-	.	.
!	!	!	!	!	!	!	!	!	!	!	!	!LO:SIC:v:t=custos cc	!	!	!
2F/	-o	2c/	-o	2cc\	-o	2ff\	-o	2f\	-o	2a\	-o	2cc\	-o	.	.
!	!	!	!	!	!	!	!	!	!	!	!	!LO:LB:g=original	!	!	!
=42-	=42-	=42-	=42-	=42-	=42-	=42-	=42-	=42-	=42-	=42-	=42-	=42-	=42-	=42-	=42-
1c	ma-	1e	ma-	1cc	ma-	1ee	ma-	1c	ma-	1g	ma-	1cc	ma-	.	.
!	!	!	!	!	!	!	!	!	!	!LO:SIC:v:t=custos g	!	!	!	!	!
2G/	-gno	2g\	-gno	2b\	-gno	2dd\	-gno	2g\	-gno	2g\	-gno.	2dd\	-gno.	.	.
!	!	!	!	!	!	!	!	!	!	!LO:LB:g=original	!	!	!	!	!
=43-	=43-	=43-	=43-	=43-	=43-	=43-	=43-	=43-	=43-	=43-	=43-	=43-	=43-	=43-	=43-
*M2/2	*	*M2/2	*	*M2/2	*	*M2/2	*	*M2/2	*	*M2/2	*	*M2/2	*	*M2/2	*
*met(C|)	*	*met(C|)	*	*met(C|)	*	*met(C|)	*	*met(C|)	*	*met(C|)	*	*met(C|)	*	*met(C|)	*
!	!	!	!	!LO:SIC:v:t=custos cc	!	!	!	!	!	!	!	!	!	!	!
0r	.	0r	.	0r	.	0r	.	0r	.	0r	.	0r	.	4.gg\	Je-
.	.	.	.	.	.	.	.	.	.	.	.	.	.	8gg\	-ru-
.	.	.	.	.	.	.	.	.	.	.	.	.	.	4gg\	-sa-
.	.	.	.	.	.	.	.	.	.	.	.	.	.	4gg\	-lem
=44-	=44-	=44-	=44-	=44-	=44-	=44-	=44-	=44-	=44-	=44-	=44-	=44-	=44-	=44-	=44-
.	.	.	.	.	.	.	.	.	.	.	.	.	.	4.ee\	gau-
.	.	.	.	.	.	.	.	.	.	.	.	.	.	8ff\	.
.	.	.	.	.	.	.	.	.	.	.	.	.	.	2gg\	-de.
!	!	!	!	!LO:PB:g=original	!	!	!	!	!	!	!	!	!	!	!
=45-	=45-	=45-	=45-	=45-	=45-	=45-	=45-	=45-	=45-	=45-	=45-	=45-	=45-	=45-	=45-
*M3/2	*	*M3/2	*	*M3/2	*	*M3/2	*	*M3/2	*	*M3/2	*	*M3/2	*	*M3/2	*
2.c/	gau-	2.c/	gau-	2.cc\	gau-	2.ee\	gau-	2.c/	gau-	2.g\	gau-	2.cc\	gau-	2.gg\	gau-
!LO:SIC:v:t=custos c	!	!	!	!	!	!	!	!	!	!	!	!	!	!	!
4F/	-di-	4c/	-di-	4cc\	-di-	4cc\	-di-	4f\	-di-	4a\	-di-	4cc\	-di-	4ff\	-di-
!LO:LB:g=original	!	!LO:SIC:v:t=custos g	!	!	!	!	!	!	!	!	!	!	!	!	!
2c/	-o	2e/	-o	2g/	-o	2cc\	-o	2c/	-o	2g\	-o	2cc\	-o	2ee\	-o
!	!	!LO:LB:g=original	!	!	!	!	!	!	!	!	!	!	!	!	!
=46-	=46-	=46-	=46-	=46-	=46-	=46-	=46-	=46-	=46-	=46-	=46-	=46-	=46-	=46-	=46-
1G	ma-	1g	ma-	1b	ma-	1dd	ma-	1g	ma-	1g	ma-	1b	ma-	1dd	ma-
!	!	!	!	!	!	!	!	!	!	!	!	!	!	!LO:SIC:v:t=custos ee	!
2c/	-gno	2e/	-gno	2g/	-gno	2cc\	-gno	2c/	-gno	2g\	-gno	2cc\	-gno	2ee\	-gno
!	!	!	!	!	!	!	!	!	!	!	!	!	!	!LO:LB:g=original	!
=47-	=47-	=47-	=47-	=47-	=47-	=47-	=47-	=47-	=47-	=47-	=47-	=47-	=47-	=47-	=47-
*M2/2	*	*M2/2	*	*M2/2	*	*M2/2	*	*M2/2	*	*M2/2	*	*M2/2	*	*M2/2	*
*met(C|)	*	*met(C|)	*	*met(C|)	*	*met(C|)	*	*met(C|)	*	*met(C|)	*	*met(C|)	*	*met(C|)	*
!	!	!	!	!	!	!LO:SIC:v:t=custos dd	!	!	!	!	!	!	!	!	!
1r	.	1r	.	1r	.	1r	.	2.c/	Qui-	2.g\	Qui-	2.cc\	Qui-	2.ee\	Qui-
.	.	.	.	.	.	.	.	4B/	-a	4g\	-a	4dd\	-a	4dd\	-a
!	!	!	!	!	!	!LO:PB:g=original	!	!	!	!	!	!	!	!	!
=48-	=48-	=48-	=48-	=48-	=48-	=48-	=48-	=48-	=48-	=48-	=48-	=48-	=48-	=48-	=48-
2r	.	2r	.	2r	.	2r	.	4c/	ve-	4e/	ve-	4cc\	ve-	4ee\	ve-
.	.	.	.	.	.	.	.	4A/	-ni-	4f\	-ni-	4cc\	-ni-	4cc\	-ni-
4r	.	4r	.	4r	.	4r	.	2G/	-et	2g\	-et	2b\	-et	2dd\	-et
2g\	Qui-	2g\	Qui-	2b\	Qui-	2dd\	Qui-	.	.	.	.	.	.	.	.
=49-	=49-	=49-	=49-	=49-	=49-	=49-	=49-	=49-	=49-	=49-	=49-	=49-	=49-	=49-	=49-
.	.	.	.	.	.	.	.	1r	.	1r	.	1r	.	1r	.
!LO:TX:b:t=P:problem:# below	!	!	!	!	!	!	!	!	!	!	!	!	!	!	!
4f#X\	-a	4a\	-a	4a\	-a	4dd\	-a	.	.	.	.	.	.	.	.
4g\	ve-	4g\	ve-	4b\	ve-	4b/	ve-	.	.	.	.	.	.	.	.
!	!	!	!	!	!	!LO:TX:b:t=P:problem:# below	!	!	!	!	!	!	!	!	!
4e\	-ni-	4g\	-ni-	4g/	-ni-	4cc#X\	-ni-	.	.	.	.	.	.	.	.
=50-	=50-	=50-	=50-	=50-	=50-	=50-	=50-	=50-	=50-	=50-	=50-	=50-	=50-	=50-	=50-
!	!	!LO:TX:b:t=P:problem:# below	!	!	!	!	!	!	!	!	!	!	!	!	!
2d\	-et	2f#X\	-et	2a\	-et	2dd\	-et	4r	.	4r	.	4r	.	4r	.
.	.	.	.	.	.	.	.	2d\	qui-	2a\	qui-	2dd\	qui-	2ff\	qui-
2r	.	2r	.	2r	.	2r	.	.	.	.	.	.	.	.	.
!	!	!	!	!	!	!	!	!LO:TX:b:t=P:problem:# below	!	!	!	!	!	!	!
!	!	!	!	!	!	!	!	!LO:SIC:v:t=custos d	!	!	!	!	!	!	!
.	.	.	.	.	.	.	.	4c#X/	-a	4a\	-a	4ee\	-a	4ee\	-a
!	!	!	!	!	!	!	!	!LO:LB:g=original	!	!	!	!	!	!	!
=51-	=51-	=51-	=51-	=51-	=51-	=51-	=51-	=51-	=51-	=51-	=51-	=51-	=51-	=51-	=51-
2r	.	2r	.	2r	.	2r	.	4d\	ve-	4f\	ve-	4dd\	ve-	4ff\	ve-
.	.	.	.	.	.	.	.	4B/	-ni-	4g\	-ni-	4dd\	-ni-	4dd\	-ni-
!	!	!	!	!	!	!	!	!	!	!	!	!LO:TX:b:t=P:problem:# below	!	!	!
4r	.	4r	.	4r	.	4r	.	4A/	-et	4a\	-et	4cc#X\	-et	4ee\	-et
2fny\	qui-	2a\	qui-	2cc\	qui-	2ccny\	qui-	4r	.	4r	.	4r	.	4r	.
=52-	=52-	=52-	=52-	=52-	=52-	=52-	=52-	=52-	=52-	=52-	=52-	=52-	=52-	=52-	=52-
!	!	!	!	!	!	!	!	!	!	!	!	!LO:SIC:v:t=custos ee	!	!	!
.	.	.	.	.	.	.	.	1r	.	1r	.	1r	.	2r	.
4e\	-a	4g\	-a	4g/	-a	4cc\	-a	.	.	.	.	.	.	.	.
4f\	ve-	4fny\	ve-	4a\	ve-	4cc\	ve-	.	.	.	.	.	.	2r	.
4d\	-ni-	4f\	-ni-	4b\	-ni-	4dd\	-ni-	.	.	.	.	.	.	.	.
!	!	!	!	!	!	!	!	!	!	!	!	!LO:LB:g=original	!	!	!
=53-	=53-	=53-	=53-	=53-	=53-	=53-	=53-	=53-	=53-	=53-	=53-	=53-	=53-	=53-	=53-
4c/	-et	4g\	-et	4cc\	-et	4ee\	-et	4r	.	4r	.	4r	.	4r	.
4r	.	4r	.	4r	.	4r	.	2e\	qui-	2g\	qui-	2ee\	qui-	2gg\	qui-
2r	.	2r	.	2r	.	2r	.	.	.	.	.	.	.	.	.
!	!	!	!	!	!	!	!	!	!	!LO:SIC:v:t=custos g	!	!	!	!LO:TX:b:t=P:problem:# below	!
.	.	.	.	.	.	.	.	4d\	-a	4d/	-a	4b\	-a	4ff#X\	-a
!	!	!	!	!	!	!	!	!	!	!LO:LB:g=original	!	!	!	!	!
=54-	=54-	=54-	=54-	=54-	=54-	=54-	=54-	=54-	=54-	=54-	=54-	=54-	=54-	=54-	=54-
2r	.	2r	.	2r	.	2r	.	4e\	ve-	4g\	ve-	4b\	ve-	4gg\	ve-
.	.	.	.	.	.	.	.	4cny/	-ni-	4g\	-ni-	4ccny\	-ni-	4ee\	-ni-
!	!	!	!	!	!	!	!	!	!	!LO:TX:b:t=P:problem:# below	!	!	!	!	!
4r	.	4r	.	4r	.	4r	.	4B/	-et	4f#X\	-et	4dd\	-et	4dd\	-et
2d\	qui-	2a\	qui-	2dd\	qui-	2ff\	qui-	4r	.	4r	.	4r	.	4r	.
=55-	=55-	=55-	=55-	=55-	=55-	=55-	=55-	=55-	=55-	=55-	=55-	=55-	=55-	=55-	=55-
.	.	.	.	.	.	.	.	1r	.	1r	.	1r	.	1r	.
!LO:TX:b:t=P:problem:# below	!	!	!	!	!	!	!	!	!	!	!	!	!	!	!
4c#X/	-a	4a\	-a	4ee\	-a	4ee\	-a	.	.	.	.	.	.	.	.
4d\	ve-	4f\	ve-	4dd\	ve-	4ff\	ve-	.	.	.	.	.	.	.	.
4B/	-ni-	4g\	-ni-	4dd\	-ni-	4dd\	-ni-	.	.	.	.	.	.	.	.
=56-	=56-	=56-	=56-	=56-	=56-	=56-	=56-	=56-	=56-	=56-	=56-	=56-	=56-	=56-	=56-
!	!	!	!	!LO:TX:b:t=P:problem:# below	!	!	!	!	!	!	!	!	!	!	!
!LO:SIC:v:t=custos A	!	!	!	!LO:SIC:v:t=custos cc	!	!	!	!	!	!	!	!	!	!	!
2A/	-et	2a\	-et	2cc#X\	-et	2ee\	-et	2r	.	2r	.	2r	.	2r	.
!LO:LB:g=original	!	!	!	!LO:LB:g=original	!	!	!	!	!	!	!	!	!	!	!
2r	.	2r	.	2r	.	2r	.	4c/	Ve-	4g\	ve-	4cc\	ve-	4ee\	ve-
.	.	.	.	.	.	.	.	8c/L	-ni-	8g\L	-ni-	8cc\L	-ni-	8ee\L	-ni-
!	!	!	!	!	!	!	!	!	!	!	!	!	!	!LO:SIC:v:t=custos ff	!
.	.	.	.	.	.	.	.	8c/J	-et	8g\J	-et	8cc\J	-et	8ee\J	-et
!	!	!	!	!	!	!	!	!	!	!	!	!	!	!LO:LB:g=original	!
=57-	=57-	=57-	=57-	=57-	=57-	=57-	=57-	=57-	=57-	=57-	=57-	=57-	=57-	=57-	=57-
!	!	!LO:SIC:v:t=custos a	!	!	!	!	!	!	!	!	!	!	!	!	!
1r	.	1r	.	1r	.	1r	.	4F/	ti-	4a\	ti-	4cc\	ti-	4ffny\	ti-
.	.	.	.	.	.	.	.	4c/	-bi	4g\	-bi	4cc\	-bi	4ee\	-bi
.	.	.	.	.	.	.	.	4.G/	Sal-	4.g\	sal-	4.b\	Sal-	4.dd\	Sal-
.	.	.	.	.	.	.	.	8G/	-ua-	8g\	-ua-	8b\	-ua-	8dd\	-ua-
!	!	!LO:LB:g=original	!	!	!	!	!	!	!	!	!	!	!	!	!
=58-	=58-	=58-	=58-	=58-	=58-	=58-	=58-	=58-	=58-	=58-	=58-	=58-	=58-	=58-	=58-
2r	.	2r	.	2r	.	2r	.	2c/	-tor	2g\	-tor	2cc\	-tor	2ee\	-tor
4A/	ve-	4a\	ve-	4ccny\	ve-	4ee\	ve-	2r	.	2r	.	2r	.	2r	.
8A/L	-ni-	8a\L	-ni-	8cc\L	-ni-	8ee\L	-ni-	.	.	.	.	.	.	.	.
8A/J	-et	8a\J	-et	8cc\J	-et	8ee\J	-et	.	.	.	.	.	.	.	.
=59-	=59-	=59-	=59-	=59-	=59-	=59-	=59-	=59-	=59-	=59-	=59-	=59-	=59-	=59-	=59-
4d\	ti-	4a\	ti-	4dd\	ti-	4ff\	ti-	1r	.	1r	.	1r	.	1r	.
4A/	-bi	4a\	-bi	4cc\	-bi	4ee\	-bi-	.	.	.	.	.	.	.	.
!	!	!LO:TX:b:t=P:problem:# below	!	!	!	!	!	!	!	!	!	!	!	!	!
4.e\	sal-	4.g#X\	sal-	4.b\	sal-	4.ee\	-Sal-	.	.	.	.	.	.	.	.
8e\	-va-	8g#\	-ua-	8b\	-ua-	8ee\	-ua-	.	.	.	.	.	.	.	.
=60-	=60-	=60-	=60-	=60-	=60-	=60-	=60-	=60-	=60-	=60-	=60-	=60-	=60-	=60-	=60-
!	!	!	!	!LO:TX:b:t=P:problem:# below	!	!	!	!	!	!	!	!	!	!	!
2A/	-tor	2a\	-tor	2cc#X\	-tor	2ee\	-tor	2r	.	2r	.	2r	.	2r	.
!	!	!	!	!	!	!LO:SIC:v:t=custos ff	!	!	!	!	!	!	!	!	!
2r	.	2r	.	2r	.	2r	.	4c/	ve-	4g\	ve-	4cc\	ve-	4ee\	ve-
.	.	.	.	.	.	.	.	8c/L	-ni-	8g\L	-ni-	8cc\L	-ni-	8ee\L	-ni-
!	!	!	!	!	!	!	!	!LO:SIC:v:t=custos g	!	!	!	!	!	!	!
.	.	.	.	.	.	.	.	8c/J	-et	8g\J	-et	8cc\J	-et	8ee\J	-et
!	!	!	!	!	!	!LO:LB:g=original	!	!LO:LB:g=original	!	!	!	!	!	!	!
=61-	=61-	=61-	=61-	=61-	=61-	=61-	=61-	=61-	=61-	=61-	=61-	=61-	=61-	=61-	=61-
1r	.	1r	.	1r	.	1r	.	4g\	ti-	4g\	ti-	4b\	ti-	4dd\	ti-
.	.	.	.	.	.	.	.	4e\	-bi	4g\	-bi	4cc\	-bi	4ee\	-bi
.	.	.	.	.	.	.	.	4.d\	Sal-	4.a\	Sal-	4a\	sal-	4.ff\	sal-
.	.	.	.	.	.	.	.	.	.	.	.	4b\	-ua-	.	.
.	.	.	.	.	.	.	.	8d\	-ua-	8fny\	-ua-	.	.	8ff\	-ua-
=62-	=62-	=62-	=62-	=62-	=62-	=62-	=62-	=62-	=62-	=62-	=62-	=62-	=62-	=62-	=62-
2r	.	2r	.	2r	.	2r	.	2c\	-tor	2g\	-tor	2cc\	-tor	2ee\	-tor
4cny/	ve-	4gny\	ve-	4ccny\	ve-	4ee\	ve-	2r	.	2r	.	2r	.	2r	.
8c/L	-ni-	8g\L	-ni-	8cc\L	-ni-	8ee\L	-ni-	.	.	.	.	.	.	.	.
8c/J	-et	8g\J	-et	8cc\J	-et	8ee\J	-et	.	.	.	.	.	.	.	.
=63-	=63-	=63-	=63-	=63-	=63-	=63-	=63-	=63-	=63-	=63-	=63-	=63-	=63-	=63-	=63-
4f\	ti-	4a\	ti-	4a\	ti-	4cc\	ti-	1r	.	1r	.	1r	.	1r	.
4a\	-bi	4a\	-bi	4cc\	-bi	4cc\	-bi	.	.	.	.	.	.	.	.
4.g\	sal-	4.b\	Sal-	4.b\	Sal-	4.dd\	sal-	.	.	.	.	.	.	.	.
8g\	-ua-	8g\	-ua-	8b\	-ua-	8dd\	-ua-	.	.	.	.	.	.	.	.
=64-	=64-	=64-	=64-	=64-	=64-	=64-	=64-	=64-	=64-	=64-	=64-	=64-	=64-	=64-	=64-
2c,</	-tor	2g\	-tor	2cc\	-tor	2ee\	-tor	2r	.	2r	.	2r	.	2r	.
4c/	ve-	4g\	ve-	4cc,<\	ve-	4ee\	ve-	4c/	ve-	4g\	ve-	4cc\	ve-	4gg\	ve-
8c/L	-ni-	8c/L	-ni-	8cc\L	-ni-	8ee\L	-ni-	8c/L	-ni-	8g\L	-ni-	8cc\L	-ni-	8gg\L	-ni-
!	!	!	!	!	!	!	!	!	!	!LO:SIC:v:t=custos a	!	!	!	!	!
8c/J	-et	8c/J	-et	8cc\J	-et	8ee\J	-et	8c/J	-et	8g\J	-et	8cc\J	-et	8gg\J	-et
!	!	!	!	!	!	!	!	!	!	!LO:LB:g=original	!	!	!	!	!
=65-	=65-	=65-	=65-	=65-	=65-	=65-	=65-	=65-	=65-	=65-	=65-	=65-	=65-	=65-	=65-
8F/L	ti-	2c/	ti-	2.cc\	ti-	2cc\	ti-	2f\	ti-	2a\	ti-	4a\	ti-	2ff\	ti-
8G/	.	.	.	.	.	.	.	.	.	.	.	.	.	.	.
8A/	.	.	.	.	.	.	.	.	.	.	.	4b\	.	.	.
8B/J	.	.	.	.	.	.	.	.	.	.	.	.	.	.	.
2c/	-bi	2e/	-bi	.	.	2cc\	-bi	2c/	-bi	2g\	-vi	2cc\	-bi	2ee\	-bi
.	.	.	.	4g/	-bi	.	.	.	.	.	.	.	.	.	.
=66-	=66-	=66-	=66-	=66-	=66-	=66-	=66-	=66-	=66-	=66-	=66-	=66-	=66-	=66-	=66-
2.G/	Sal-	2.g\	sal-	2.b\	sal-	2.dd\	Sal-	2.g\	Sal-	2.g\	Sal-	2.b\	Sal-	2.dd\	Sal-
!LO:SIC:v:t=custos c	!	!LO:SIC:v:t=custos g	!	!LO:SIC:v:t=custos g	!	!	!	!	!	!	!	!LO:SIC:v:t=custos cc	!	!LO:SIC:v:t=custos ee	!
4G/	-ua.-	4g\	-ua-	4b\	-ua-	4dd\	-ua-	4g\	-ua-	4g\	-ua-	4b\	-ua-	4dd\	-ua-
!LO:LB:g=original	!	!LO:PB:g=original	!	!LO:LB:g=original	!	!	!	!	!	!	!	!LO:LB:g=original	!	!LO:LB:g=original	!
=67-	=67-	=67-	=67-	=67-	=67-	=67-	=67-	=67-	=67-	=67-	=67-	=67-	=67-	=67-	=67-
*M3/2	*	*M3/2	*	*M3/2	*	*M3/2	*	*M3/2	*	*M3/2	*	*M3/2	*	*M3/2	*
1c	-tor	1g	-tor	1g	-tor	1cc	-tor	1c,<	-tor	1g,<	-tor	1cc,<	-tor	1ee,<	-tor
2r	.	2r	.	2r	.	2r	.	2c/	Et	2g\	Et	2cc\	Et	2ee\	Et
=68-	=68-	=68-	=68-	=68-	=68-	=68-	=68-	=68-	=68-	=68-	=68-	=68-	=68-	=68-	=68-
00.r	.	00.r	.	00.r	.	00.r	.	2.f\	glo-	2.a\	glo-	2.cc\	glo-	2.ff\	glo-
.	.	.	.	.	.	.	.	4f\	-ri-	4a\	-ri-	4cc\	-ri-	4ff\	-ri-
.	.	.	.	.	.	.	.	2c/	-a	2g\	-a	2cc\	-a	2ee\	-a
=69-	=69-	=69-	=69-	=69-	=69-	=69-	=69-	=69-	=69-	=69-	=69-	=69-	=69-	=69-	=69-
.	.	.	.	.	.	.	.	1G	e-	1g	e-	1dd	e-	1dd	e-
.	.	.	.	.	.	.	.	2c,</	-ius	2g,<\	-ius	2cc\	-ius	2ee,<\	-ius
=70-	=70-	=70-	=70-	=70-	=70-	=70-	=70-	=70-	=70-	=70-	=70-	=70-	=70-	=70-	=70-
.	.	.	.	.	.	.	.	2c/	in	2g\	in	2ee\	in	2gg\	in
.	.	.	.	.	.	.	.	2d\	te	2d/	te	2dd\	te	2ff\	te
.	.	.	.	.	.	.	.	4e\	vi-	2g\	vi-	2cc\	vi-	2ee\	vi-
.	.	.	.	.	.	.	.	4f\	.	.	.	.	.	.	.
=71-	=71-	=71-	=71-	=71-	=71-	=71-	=71-	=71-	=71-	=71-	=71-	=71-	=71-	=71-	=71-
!	!	!	!	!	!	!	!	!LO:SIC:v:t=custos g	!	!	!	!	!	!	!
.	.	.	.	.	.	.	.	1g	-de-	1g	-de-	1b	-de-	1ff	-dè-
!	!	!	!	!	!	!	!	!LO:LB:g=original	!	!	!	!	!	!	!
.	.	.	.	.	.	.	.	2g\	-bi-	2g\	-bi-	2b\	-bi-	2dd\	-bi-
=72-	=72-	=72-	=72-	=72-	=72-	=72-	=72-	=72-	=72-	=72-	=72-	=72-	=72-	=72-	=72-
2r	.	2r	.	2r	.	2r	.	1c	-tur	1g	-tur	1cc	-tur	1ee	-tur
2r	.	2r	.	2r	.	2r	.	.	.	.	.	.	.	.	.
2c/	Et	2cc\	Et	2cc\	Et	2ee\	Et	2r	.	2r	.	2r	.	2r	.
=73-	=73-	=73-	=73-	=73-	=73-	=73-	=73-	=73-	=73-	=73-	=73-	=73-	=73-	=73-	=73-
2.g\	glo-	2.b\	glo-	2.dd\	glo-	2.dd\	glo-	00.r	.	00.r	.	00.r	.	00.r	.
4g\	-ri-	4b\	-ri-	4dd\	-ri-	4dd\	-ri-	.	.	.	.	.	.	.	.
2g\	-a	2b\	-a	2b\	-a	2dd\	-a	.	.	.	.	.	.	.	.
=74-	=74-	=74-	=74-	=74-	=74-	=74-	=74-	=74-	=74-	=74-	=74-	=74-	=74-	=74-	=74-
4c/	e-	2.g\	e-	1cc	e-	1ee	e-	.	.	.	.	.	.	.	.
4d\	.	.	.	.	.	.	.	.	.	.	.	.	.	.	.
4e\	.	.	.	.	.	.	.	.	.	.	.	.	.	.	.
4f\	.	4a\	.	.	.	.	.	.	.	.	.	.	.	.	.
2g,<\	-ius	2b\	-ius	2dd\	-ius	2dd\	-ius	.	.	.	.	.	.	.	.
=75-	=75-	=75-	=75-	=75-	=75-	=75-	=75-	=75-	=75-	=75-	=75-	=75-	=75-	=75-	=75-
!	!	!	!	!	!	!LO:SIC:v:t=custos ff	!	!	!	!	!	!	!	!	!
2c/	in	2g\	in	2cc\	in	2ee\	in	.	.	.	.	.	.	.	.
!	!	!	!	!	!	!LO:LB:g=original	!	!	!	!	!	!	!	!	!
2f\	te	2a\	te	2cc\	te	2ff\	te	.	.	.	.	.	.	.	.
2c/	vi-	2g\	vi-	2cc\	vi-	2cc\	vi-	.	.	.	.	.	.	.	.
=76-	=76-	=76-	=76-	=76-	=76-	=76-	=76-	=76-	=76-	=76-	=76-	=76-	=76-	=76-	=76-
1G	-de-	1g	-de-	1b	-de-	1dd	-de-	.	.	.	.	.	.	.	.
2G/	-bi-	2g\	-bi-	2b\	-bi-	2dd\	-bi-	.	.	.	.	.	.	.	.
=77-	=77-	=77-	=77-	=77-	=77-	=77-	=77-	=77-	=77-	=77-	=77-	=77-	=77-	=77-	=77-
1c,<	-tur	1g	-tur	1cc,<	-tur	1ee,<	-tur	2r	.	2r	.	2r	.	2r	.
.	.	.	.	.	.	.	.	2r	.	2r	.	2r	.	2r	.
2c/	in	2c/	in	2cc\	in	2ee\	in	2c/	in	2g\	in	2cc\	in	2ee\	in
=78-	=78-	=78-	=78-	=78-	=78-	=78-	=78-	=78-	=78-	=78-	=78-	=78-	=78-	=78-	=78-
!	!	!	!	!	!	!	!	!	!	!	!	!	!	!LO:SIC:v:t=custos gg	!
4F/	te	1c	te	1cc	te	1cc	te	1f	te	1a	te	2.a\	te	1ff	te
4G/	.	.	.	.	.	.	.	.	.	.	.	.	.	.	.
4A/	.	.	.	.	.	.	.	.	.	.	.	.	.	.	.
4B/	.	.	.	.	.	.	.	.	.	.	.	4b\	.	.	.
!	!	!	!	!	!	!	!	!	!	!LO:SIC:v:t=custos g	!	!	!	!LO:LB:g=original	!
2c/	vi-	2c/	vi-	2cc\	vi-	2ee\	vi-	2c/	vi-	2g\	vi-	2cc\	vi-	2gg\	vi-
!	!	!	!	!	!	!	!	!	!	!LO:LB:g=original	!	!	!	!	!
=79-	=79-	=79-	=79-	=79-	=79-	=79-	=79-	=79-	=79-	=79-	=79-	=79-	=79-	=79-	=79-
!	!	!LO:SIC:v:t=custos d	!	!	!	!	!	!	!	!	!	!	!	!	!
1G	-de-	2g\	-de-	1dd	-de-	1dd	-de-	1g	-de-	1g	-de-	1b	-de-	1gg	-de-
!	!	!LO:LB:g=original	!	!	!	!	!	!	!	!	!	!	!	!	!
.	.	2d/	.	.	.	.	.	.	.	.	.	.	.	.	.
!	!	!	!	!	!	!	!	!	!	!	!	!	!	!LO:TX:b:t=P:problem:# below	!
2d\	-bi-	2d/	-bi-	2dd\	-bi-	2dd\	-bi-	2d\	-bi-	2a\	-bi-	2a\	-bi-	2ff#X\	-bi-
!LO:LB:g=original	!	!	!	!	!	!	!	!	!	!	!	!	!	!	!
=80-	=80-	=80-	=80-	=80-	=80-	=80-	=80-	=80-	=80-	=80-	=80-	=80-	=80-	=80-	=80-
*M2/2	*	*M2/2	*	*M2/2	*	*M2/2	*	*M2/2	*	*M2/2	*	*M2/2	*	*M2/2	*
*met(C|)	*	*met(C|)	*	*met(C|)	*	*met(C|)	*	*met(C|)	*	*met(C|)	*	*met(C|)	*	*met(C|)	*
1.G	-tur	2d,</	-tur	1.dd	-tur	1.dd	-tur	1.g	-tur	0g,<	-tur	1.b	-tur	2gg,<\	-tur
.	.	2g\	in	.	.	.	.	.	.	.	.	.	.	2gg\	in
=81-	=81-	=81-	=81-	=81-	=81-	=81-	=81-	=81-	=81-	=81-	=81-	=81-	=81-	=81-	=81-
.	.	2d/	te	.	.	.	.	.	.	.	.	.	.	4gg\	te
.	.	.	.	.	.	.	.	.	.	.	.	.	.	4ffny\	.
!	!	!	!	!LO:SIC:v:t=custos cc	!	!	!	!	!	!	!	!	!	!	!
2G/	in	2g\	vi-	2b\	vi-	2dd\	vi-	2g\	in	.	.	2dd\	vi-	4ee\	.
.	.	.	.	.	.	.	.	.	.	.	.	.	.	4dd,<\	.
!	!	!	!	!LO:LB:g=original	!	!	!	!	!	!	!	!	!	!	!
=82-	=82-	=82-	=82-	=82-	=82-	=82-	=82-	=82-	=82-	=82-	=82-	=82-	=82-	=82-	=82-
4c/	te	2g\	-de-	1.cc	-de-	1.cc	-de-	4c/	te	1g	vi-	1cc	de-	4ee\	vi-
4B/	.	.	.	.	.	.	.	4d\	.	.	.	.	.	4ff\	.
4A/	vi-	2c/	.	.	.	.	.	4e\	.	.	.	.	.	4gg\	.
4G/	.	.	.	.	.	.	.	4c/	vi-	.	.	.	.	4ee\	.
=83-	=83-	=83-	=83-	=83-	=83-	=83-	=83-	=83-	=83-	=83-	=83-	=83-	=83-	=83-	=83-
2.F/	-de-	1c	-bi-	.	.	.	.	2.f\	-de-	2.a\	-de-	2.a\	.	2.ff\	-de-
.	.	.	.	2cc\	-bi-	2cc\	-bi-	.	.	.	.	.	.	.	.
4F/	-bi-	.	.	.	.	.	.	4f\	-bi-	4a\	-bi-	4b\	-bi-	4ff\	-bi-
=84-	=84-	=84-	=84-	=84-	=84-	=84-	=84-	=84-	=84-	=84-	=84-	=84-	=84-	=84-	=84-
1c;;l	-tur.	1c;;l	-tur.	1cc;;l	-tur.	1cc;;l	-tur.	1c;l	-tur.	1g;;l	-tur.	1cc;;l	-tur	1ee;;l	-tur.
==	==	==	==	==	==	==	==	==	==	==	==	==	==	==	==
*-	*-	*-	*-	*-	*-	*-	*-	*-	*-	*-	*-	*-	*-	*-	*-
!!!system-decoration: [s1,s2,s3,s4][s5,s6,s7,s8]
!!!RDF**kern: < = below
!!!RDF**kern: l = terminal long
!!!AIN: 8 empty
!!!ENC: Andrzej Kubiczek
!!!END: 2021-10-14
!!!ENC: Marta Lawrence
!!!END: 2021-10-20
